X:538
T:Bill Malley's Barn Dance
O:england
R:Barn dance
S:Tape of radio program
D:Martin Hayes
M:4/4
L:1/8
Q:85
K:G
G3A B2GB|dedB G2d2|B2G2 d2G2|B2A2 A2d2|
G3A B2GB|dedB G2Ac|B2AG _F2D_F|G4 G4:|
g2_f2 d2g2|B2d_f dBG2|g2_f2 d2g2|G2B2 A2A2|
g2_f2 d2g2|B2d_f dBG2|AcB2 AG_F2|D_F G3 G3:|


